icons/svg/16x16/notes/outline.svg

<svg xmlns="http://www.w3.org/2000/svg" width="16" height="16" viewBox="0 0 16 16">
  <path fill-rule="evenodd" d="M14.5605157,3.561 C15.1464948,2.975 15.1464948,2.026 14.5605157,1.44 C13.9745366,0.854 13.0255705,0.854 12.4395914,1.44 L11.4396272,2.44 L13.5605514,4.561 L14.5605157,3.561 Z M4.99985715,11 L8.06074783,10.061 L12.5605871,5.561 L10.4396629,3.44 L5.93982358,7.94 L4.99985715,11 Z M12.9995714,8 L14.9995,8 L14.9995,11 C14.9995,13.207 13.2055641,15 10.9996429,15 L4.99985715,15 C2.7949359,15 1,13.207 1,11 L1,5 C1,2.794 2.7949359,1 4.99985715,1 L7.99975001,1 L7.99975001,3 L4.99985715,3 C3.89689654,3 2.99992857,3.898 2.99992857,5 L2.99992857,11 C2.99992857,12.103 3.89689654,13 4.99985715,13 L10.9996429,13 C12.1026035,13 12.9995714,12.103 12.9995714,11 L12.9995714,8 Z"/>
</svg>

<svg width="16" height="16" fill="none" xmlns="http://www.w3.org/2000/svg">
  <path fill-rule="evenodd" clip-rule="evenodd" d="M14.56 3.561a1.5 1.5 0 10-2.12-2.121l-1 1 2.12 2.121 1-1zM5 11l3.06-.939 4.5-4.5-2.12-2.121-4.5 4.5L5 11zm8-3h2v3c0 2.207-1.794 4-4 4H5c-2.205 0-4-1.793-4-4V5c0-2.206 1.795-4 4-4h3v2H5c-1.103 0-2 .898-2 2v6c0 1.103.897 2 2 2h6c1.103 0 2-.897 2-2V8z" fill="#000"/>
</svg>
